X:1
T:Title
T:God Save the Queen
T:Traditional
C:Composer
%%score 1 2 3 4
L:1/8
M:3/4
K:F
V:1 treble nm="Flute" snm="Fl."
V:2 treble transpose=-2 nm="B♭ Clarinet" snm="B♭ Cl."
V:3 bass transpose=-12 nm="5-str. Electric Bass" snm="El. B."
V:4 tab transpose=-12 stafflines=5 strings=B1,E2,A2,D3,G3 nostems nm="5-str. Electric Bass" snm="El. B."
V:1
"^A" f2 f2 g2 | e3 f g2 | a2 a2 b2 | a3 g f2 | g2 f2 e2 | f2 (fg) (ab) |"^B" c'2 c'2 c'2 | %7
 c'3 b a2 | b2 b2 b2 | b3 a g2 |"^C" a2 (ba gf) | a3 b c'2 | (d'b) a2 g2 | !fermata!f6 |] %14
V:2
[K:G] G2 G2 A2 | F3 G A2 | B2 B2 c2 | B3 A G2 | A2 G2 F2 | G2 (GA) (Bc) | d2 d2 d2 | d3 c B2 | %8
 c2 c2 c2 | c3 B A2 | B2 (cB AG) | B3 c d2 | (ec) B2 A2 | !fermata!G6 |] %14
V:3
 F,2 F,2 G,2 | E,3 F, G,2 | A,2 A,2 B,2 | A,3 G, F,2 | G,2 F,2 E,2 | F,2 (F, G,) (A, B,) | %6
 C2 C2 C2 | C3 B, A,2 | B,2 B,2 B,2 | B,3 A, G,2 | A,2 (B, A, G, F,) | A,3 B, C2 | (D B,) A,2 G,2 | %13
 !fermata!F,6 |] %14
V:4
 !2!F,,2 !2!F,,2 !1!G,,2 | !2!E,,3 !2!F,, !1!G,,2 | !1!A,,2 !1!A,,2 !1!B,,2 | %3
 !1!A,,3 !1!G,, !2!F,,2 | !1!G,,2 !2!F,,2 !2!E,,2 | !2!F,,2 (!2!F,, !1!G,,) (!1!A,, !1!B,,) | %6
 !1!C,2 !1!C,2 !1!C,2 | !1!C,3 !1!B,, !1!A,,2 | !1!B,,2 !1!B,,2 !1!B,,2 | !1!B,,3 !1!A,, !1!G,,2 | %10
 !1!A,,2 (!1!B,, !1!A,, !1!G,, !2!F,,) | !1!A,,3 !1!B,, !1!C,2 | (!1!D, !1!B,,) !1!A,,2 !1!G,,2 | %13
 !fermata!!2!F,,6 |] %14

